; generated by PrusaSlicer 2.6.0+win64 on 2024-02-25 at 09:40:19 UTC


;
;

;
;
; 

; external perimeters extrusion width = 0.45mm
; perimeters extrusion width = 0.45mm
; infill extrusion width = 0.45mm
; solid infill extrusion width = 0.45mm
; top infill extrusion width = 0.40mm
; first layer extrusion width = 0.42mm

M73 P0 R5
;TYPE:Custom
G90 ; use absolute coordinates
M83 ; extruder relative mode
M204 S1250 T1250
M104 S255 ; set extruder temp
M140 S105 ; set bed temp
G28 ; home all
G1 Y1.0 Z0.3 F1000 ; move print head up
M190 S105 ; wait for bed temp
M109 S255 ; wait for extruder temp
G92 E0.0
; initial load
G1 X205.0 E19 F1000
G1 Y1.6
M73 P3 R5
G1 X5.0 E19 F1000
G92 E0.0
; intro line
G1 Y2.0 Z0.2 F1000
M73 P6 R5
G1 X65.0 E9.0 F1000
M73 P7 R5
G1 X105.0 E12.5 F1000
G92 E0.0
G21 ; set units to millimeters
G90 ; use absolute coordinates
M83 ; use relative distances for extrusion
; Filament gcode
M107
;LAYER_CHANGE
;Z:0.2
;HEIGHT:0.2
;BEFORE_LAYER_CHANGE
G92 E0.0
;0.2
M73 P8 R5
G1 E-6 F2400
G1 Z.075 F10800
G1 Z.2
;AFTER_LAYER_CHANGE
;0.2
G1 Z.275
G1 X95.492 Y50.833
G1 Z.2
G1 E6 F3000
M204 S800
;TYPE:Skirt/Brim
;WIDTH:0.42
G1 F1200
M73 P9 R5
G1 X96.486 Y49.061 E.0637
G1 X97.111 Y48.252 E.03205
G1 X97.808 Y47.514 E.03183
G1 X98.582 Y46.841 E.03216
G1 X99.414 Y46.25 E.032
G1 X101.22 Y45.332 E.06352
G1 X102.194 Y45.005 E.03221
G1 X103.179 Y44.78 E.03168
G1 X104.195 Y44.65 E.03212
G1 X105.216 Y44.621 E.03203
G1 X107.236 Y44.863 E.06379
G1 X109.168 Y45.492 E.06371
G1 X110.083 Y45.948 E.03205
G1 X110.944 Y46.489 E.03188
G1 X112.485 Y47.807 E.06358
G1 X113.158 Y48.58 E.03214
G1 X113.748 Y49.411 E.03195
G1 X114.668 Y51.219 E.06361
G1 X114.995 Y52.194 E.03224
G1 X115.221 Y53.187 E.03193
G1 X115.379 Y55.216 E.06381
G1 X115.137 Y57.237 E.06382
G1 X114.506 Y59.172 E.06381
G1 X113.511 Y60.944 E.06372
G1 X112.192 Y62.486 E.06362
G1 X111.417 Y63.16 E.0322
G1 X110.587 Y63.749 E.03191
G1 X108.774 Y64.671 E.06377
G1 X106.816 Y65.221 E.06377
G1 X105.802 Y65.35 E.03205
G1 X104.784 Y65.379 E.03193
G1 X102.764 Y65.137 E.06379
G1 X101.78 Y64.869 E.03198
G1 X100.828 Y64.506 E.03195
G1 X99.056 Y63.511 E.06372
G1 X98.249 Y62.886 E.032
G1 X97.509 Y62.187 E.03192
G1 X96.841 Y61.418 E.03194
G1 X96.25 Y60.586 E.032
G1 X95.332 Y58.781 E.06349
G1 X95.006 Y57.808 E.03217
G1 X94.779 Y56.813 E.032
G1 X94.621 Y54.789 E.06365
G1 X94.692 Y53.768 E.03209
G1 X94.863 Y52.763 E.03196
G1 X95.473 Y50.89 E.06176
M204 S1000
G1 X95.83 Y51.007 F10800
M204 S800
G1 F1200
G1 X96.797 Y49.274 E.06222
G1 X98.072 Y47.784 E.06149
G1 X99.619 Y46.566 E.06173
M73 P10 R5
G1 X101.36 Y45.682 E.06122
G1 X103.248 Y45.151 E.06149
G1 X105.212 Y44.998 E.06177
G1 X107.158 Y45.232 E.06145
G1 X109.02 Y45.839 E.06141
G1 X110.731 Y46.8 E.06153
G1 X112.215 Y48.07 E.06124
G1 X113.432 Y49.617 E.06172
G1 X114.318 Y51.359 E.06128
G1 X114.851 Y53.256 E.06178
G1 X115.002 Y55.212 E.06151
G1 X114.768 Y57.159 E.06149
G1 X114.159 Y59.023 E.06148
G1 X113.2 Y60.731 E.06142
G1 X111.928 Y62.216 E.06131
G1 X110.381 Y63.433 E.06172
G1 X108.634 Y64.321 E.06145
G1 X106.746 Y64.85 E.06148
G1 X104.788 Y65.002 E.06158
G1 X102.842 Y64.768 E.06145
G1 X100.977 Y64.159 E.06151
G1 X99.269 Y63.2 E.06142
G1 X97.778 Y61.923 E.06155
G1 X96.566 Y60.381 E.0615
G1 X95.682 Y58.641 E.06119
G1 X95.149 Y56.744 E.06178
G1 X94.998 Y54.793 E.06136
G1 X95.232 Y52.841 E.06164
G1 X95.812 Y51.064 E.05861
M204 S1000
G1 X96.169 Y51.18 F10800
M204 S800
G1 F1200
G1 X97.108 Y49.487 E.0607
G1 X98.335 Y48.053 E.05917
G1 X99.825 Y46.882 E.05942
G1 X101.5 Y46.032 E.05889
G1 X103.317 Y45.521 E.05918
G1 X105.207 Y45.375 E.05944
G1 X107.08 Y45.6 E.05915
M73 P11 R5
G1 X108.871 Y46.186 E.05908
G1 X110.518 Y47.111 E.05923
G1 X111.945 Y48.334 E.05893
G1 X113.116 Y49.823 E.05939
G1 X113.968 Y51.499 E.05895
G1 X114.48 Y53.325 E.05946
G1 X114.625 Y55.207 E.05918
G1 X114.399 Y57.081 E.05918
G1 X113.813 Y58.874 E.05914
G1 X112.889 Y60.518 E.05913
G1 X111.665 Y61.947 E.05899
G1 X110.176 Y63.117 E.05937
G1 X108.494 Y63.971 E.05915
G1 X106.677 Y64.48 E.05916
G1 X104.793 Y64.625 E.05925
G1 X102.92 Y64.4 E.05915
G1 X101.125 Y63.813 E.05921
G1 X99.482 Y62.889 E.0591
G1 X98.048 Y61.66 E.05922
G1 X96.882 Y60.175 E.0592
G1 X96.032 Y58.501 E.05887
G1 X95.52 Y56.675 E.05946
G1 X95.375 Y54.798 E.05903
G1 X95.601 Y52.919 E.05934
G1 X96.15 Y51.237 E.05548
M204 S1000
; printing object Camera cap.stl id:0 copy 0
G1 E-3.6 F2400
;WIPE_START
G1 F8640
G1 X97.108 Y49.487 E-.52647
G1 X98.335 Y48.053 E-.49804
G1 X99.825 Y46.882 E-.50009
G1 X101.5 Y46.032 E-.49567
G1 X102.885 Y45.642 E-.37973
;WIPE_END
G1 Z.275 F10800
G1 X98.792 Y52.605
G1 Z.2
G1 E6 F3000
M204 S800
;TYPE:Perimeter
;WIDTH:0.419999
G1 F1200
G1 X99.056 Y52.008 E.02047
G1 X99.378 Y51.44 E.02047
G1 X99.754 Y50.906 E.02048
G1 X100.181 Y50.412 E.02047
G1 X100.654 Y49.961 E.02049
G1 X101.168 Y49.56 E.02044
M73 P12 R5
G1 X101.72 Y49.21 E.02049
G1 X102.304 Y48.917 E.02049
G1 X102.913 Y48.682 E.02047
G1 X103.542 Y48.507 E.02047
G1 X104.186 Y48.396 E.02049
G1 X104.836 Y48.348 E.02044
G1 X105.489 Y48.364 E.02048
G1 X106.138 Y48.444 E.0205
G1 X106.775 Y48.587 E.02047
G1 X107.395 Y48.792 E.02047
G1 X107.992 Y49.056 E.02047
G1 X108.56 Y49.378 E.02047
G1 X109.094 Y49.754 E.02048
G1 X109.588 Y50.181 E.02047
G1 X110.039 Y50.654 E.02049
G1 X110.44 Y51.168 E.02044
G1 X110.79 Y51.72 E.02049
G1 X111.083 Y52.303 E.02046
G1 X111.318 Y52.913 E.0205
G1 X111.493 Y53.542 E.02047
G1 X111.604 Y54.186 E.02049
G1 X111.652 Y54.837 E.02047
G1 X111.636 Y55.489 E.02045
G1 X111.556 Y56.138 E.0205
G1 X111.413 Y56.775 E.02047
G1 X111.208 Y57.395 E.02047
G1 X110.944 Y57.992 E.02047
G1 X110.622 Y58.56 E.02047
G1 X110.246 Y59.094 E.02048
G1 X109.819 Y59.588 E.02047
G1 X109.346 Y60.039 E.02049
G1 X108.832 Y60.44 E.02044
G1 X108.28 Y60.79 E.02049
G1 X107.697 Y61.083 E.02046
G1 X107.087 Y61.318 E.0205
G1 X106.458 Y61.492 E.02046
G1 X105.815 Y61.604 E.02046
G1 X105.163 Y61.652 E.0205
G1 X104.511 Y61.636 E.02045
G1 X103.862 Y61.556 E.0205
G1 X103.225 Y61.413 E.02047
G1 X102.605 Y61.208 E.02047
G1 X102.008 Y60.944 E.02047
G1 X101.44 Y60.622 E.02047
G1 X100.906 Y60.246 E.02048
G1 X100.412 Y59.819 E.02047
G1 X99.961 Y59.346 E.02049
G1 X99.56 Y58.832 E.02044
G1 X99.21 Y58.28 E.02049
G1 X98.917 Y57.697 E.02046
G1 X98.682 Y57.087 E.0205
G1 X98.507 Y56.458 E.02047
G1 X98.396 Y55.815 E.02046
G1 X98.348 Y55.163 E.0205
G1 X98.364 Y54.51 E.02048
G1 X98.444 Y53.862 E.02047
G1 X98.587 Y53.225 E.02047
G1 X98.773 Y52.662 E.01859
M204 S1000
G1 X98.44 Y52.469 F10800
M204 S800
;TYPE:External perimeter
G1 F1200
G1 X98.72 Y51.839 E.02162
G1 X99.06 Y51.238 E.02165
G1 X99.457 Y50.674 E.02163
G1 X99.908 Y50.152 E.02163
G1 X100.407 Y49.676 E.02162
G1 X100.951 Y49.251 E.02164
G1 X101.534 Y48.882 E.02163
G1 X102.151 Y48.572 E.02165
G1 X102.794 Y48.324 E.02161
G1 X103.46 Y48.14 E.02166
G1 X104.14 Y48.021 E.02164
G1 X104.826 Y47.971 E.02157
G1 X105.517 Y47.988 E.02167
G1 X106.202 Y48.072 E.02164
G1 X106.875 Y48.223 E.02163
G1 X107.531 Y48.44 E.02166
G1 X108.161 Y48.72 E.02162
G1 X108.762 Y49.06 E.02165
G1 X109.326 Y49.457 E.02163
G1 X109.848 Y49.908 E.02163
G1 X110.324 Y50.407 E.02162
G1 X110.749 Y50.951 E.02164
G1 X111.118 Y51.534 E.02163
G1 X111.428 Y52.151 E.02165
G1 X111.676 Y52.794 E.02161
G1 X111.86 Y53.459 E.02163
G1 X111.978 Y54.139 E.02164
G1 X112.029 Y54.827 E.02163
G1 X112.012 Y55.517 E.02164
G1 X111.928 Y56.202 E.02164
G1 X111.777 Y56.875 E.02163
G1 X111.56 Y57.53 E.02163
G1 X111.281 Y58.161 E.02163
G1 X110.94 Y58.762 E.02167
G1 X110.543 Y59.326 E.02163
G1 X110.092 Y59.848 E.02163
G1 X109.593 Y60.324 E.02162
G1 X109.049 Y60.749 E.02164
G1 X108.466 Y61.118 E.02163
G1 X107.849 Y61.428 E.02165
G1 X107.206 Y61.676 E.02161
G1 X106.541 Y61.86 E.02163
G1 X105.861 Y61.978 E.02164
G1 X105.173 Y62.029 E.02163
G1 X104.483 Y62.012 E.02164
G1 X103.798 Y61.928 E.02164
M73 P13 R5
G1 X103.125 Y61.777 E.02163
G1 X102.47 Y61.56 E.02163
G1 X101.839 Y61.281 E.02163
G1 X101.238 Y60.94 E.02167
G1 X100.674 Y60.543 E.02163
G1 X100.152 Y60.092 E.02163
G1 X99.676 Y59.593 E.02162
G1 X99.251 Y59.049 E.02164
G1 X98.882 Y58.466 E.02163
G1 X98.572 Y57.849 E.02165
G1 X98.324 Y57.206 E.02161
G1 X98.14 Y56.541 E.02163
G1 X98.022 Y55.861 E.02164
G1 X97.971 Y55.173 E.02163
G1 X97.988 Y54.483 E.02164
G1 X98.072 Y53.798 E.02164
G1 X98.223 Y53.125 E.02163
G1 X98.421 Y52.526 E.01978
M204 S1000
G1 X98.835 Y52.408 F10800
G1 E-3.6 F2400
;WIPE_START
G1 F8640
G1 X98.72 Y51.839 E-.19772
G1 X99.06 Y51.238 E-.18222
G1 X99.457 Y50.674 E-.18201
G1 X99.908 Y50.152 E-.18204
G1 X100.407 Y49.676 E-.18198
G1 X100.951 Y49.251 E-.18217
G1 X101.534 Y48.882 E-.18207
G1 X102.151 Y48.572 E-.18222
G1 X102.794 Y48.324 E-.18186
G1 X103.46 Y48.14 E-.18233
G1 X104.14 Y48.021 E-.18217
G1 X104.826 Y47.971 E-.18151
G1 X105.517 Y47.988 E-.1824
G1 X105.582 Y47.996 E-.0173
;WIPE_END
G1 Z.275 F10800
G1 X110.565 Y51.552
G1 Z.2
G1 E6 F3000
M204 S800
;TYPE:Solid infill
;WIDTH:0.429146
G1 F1200
G1 X109.167 Y50.17 E.06313
G1 X108.673 Y49.785 E.02011
G1 X108.144 Y49.45 E.02011
G1 X107.684 Y49.218 E.01655
G1 X110.777 Y52.311 E.14048
G1 X110.952 Y52.704 E.01382
G1 X111.113 Y53.193 E.01653
G1 X106.81 Y48.89 E.19543
G1 X106.398 Y48.776 E.01373
G1 X106.098 Y48.724 E.00978
G1 X111.285 Y53.912 E.2356
G1 X111.362 Y54.534 E.02013
G1 X105.474 Y48.646 E.26742
G1 X105.155 Y48.623 E.01027
G1 X104.91 Y48.629 E.00787
G1 X111.376 Y55.094 E.29365
G1 X111.344 Y55.609 E.01657
M73 P14 R5
G1 X104.391 Y48.656 E.31579
G1 X103.905 Y48.716 E.01573
G1 X111.278 Y56.089 E.33486
G1 X111.184 Y56.542 E.01486
G1 X103.459 Y48.816 E.35087
G1 X103.035 Y48.939 E.01418
G1 X111.066 Y56.969 E.36472
G1 X110.916 Y57.366 E.01363
G1 X102.631 Y49.081 E.37628
G1 X102.253 Y49.249 E.01328
M73 P14 R4
G1 X110.751 Y57.746 E.38593
G1 X110.568 Y58.11 E.01308
M73 P15 R4
G1 X101.894 Y49.437 E.39393
G1 X101.549 Y49.637 E.01281
G1 X110.359 Y58.447 E.40013
G1 X110.138 Y58.772 E.01262
G1 X101.229 Y49.863 E.40462
G1 X100.922 Y50.103 E.01251
G1 X109.898 Y59.079 E.40766
G1 X109.64 Y59.367 E.01242
G1 X100.629 Y50.356 E.40925
G1 X100.601 Y50.38 E.00118
G1 X100.36 Y50.633 E.01122
G1 X109.371 Y59.644 E.40925
G1 X109.078 Y59.897 E.01243
M73 P16 R4
G1 X100.101 Y50.921 E.40769
G1 X99.862 Y51.228 E.01249
G1 X108.771 Y60.137 E.40462
G1 X108.451 Y60.363 E.01258
G1 X99.641 Y51.553 E.40013
G1 X99.432 Y51.89 E.01274
G1 X108.105 Y60.563 E.3939
G1 X107.747 Y60.751 E.01299
G1 X99.249 Y52.254 E.38593
G1 X99.084 Y52.634 E.0133
M73 P17 R4
G1 X107.369 Y60.919 E.37628
G1 X106.964 Y61.061 E.01378
G1 X98.934 Y53.031 E.3647
G1 X98.816 Y53.459 E.01426
G1 X106.541 Y61.184 E.35085
G1 X106.095 Y61.284 E.01468
G1 X98.722 Y53.911 E.33486
G1 X98.656 Y54.391 E.01556
G1 X105.609 Y61.345 E.31581
G1 X105.09 Y61.371 E.01669
G1 X98.624 Y54.906 E.29365
G1 X98.638 Y55.466 E.01799
M73 P18 R4
G1 X104.526 Y61.354 E.26742
G1 X104.219 Y61.331 E.00989
G1 X103.902 Y61.276 E.01033
G1 X98.715 Y56.088 E.2356
G1 X98.887 Y56.807 E.02374
G1 X103.19 Y61.11 E.19543
G1 X102.999 Y61.057 E.00637
G1 X102.315 Y60.782 E.02368
G1 X99.223 Y57.689 E.14045
G1 X99.302 Y57.868 E.00628
G1 X99.611 Y58.413 E.02012
G1 X99.971 Y58.925 E.0201
G1 X100.341 Y59.354 E.01819
G1 X101.537 Y60.549 E.0543
M204 S1000
; stop printing object Camera cap.stl id:0 copy 0
;LAYER_CHANGE
;Z:0.35
;HEIGHT:0.15
;BEFORE_LAYER_CHANGE
G92 E0.0
;0.35
G1 E-3.6 F2400
;WIPE_START
G1 F8640
G1 X100.341 Y59.354 E-.44615
G1 X99.971 Y58.925 E-.1495
G1 X99.611 Y58.413 E-.16517
G1 X99.302 Y57.868 E-.16533
G1 X99.223 Y57.689 E-.05163
G1 X102.315 Y60.782 E-1.15411
G1 X102.999 Y61.057 E-.19454
G1 X103.19 Y61.11 E-.05231
G1 X103.133 Y61.053 E-.02126
;WIPE_END
G1 Z.275 F10800
G1 Z.35
;AFTER_LAYER_CHANGE
;0.35
M140 S110 ; set bed temperature
G1 Z.425
G1 X102.071 Y64.948
G1 Z.35
G1 E6 F3000
;TYPE:Skirt/Brim
;WIDTH:0.42
G1 X101.78 Y64.869 E.00729
G1 X100.828 Y64.506 E.02464
G1 X99.056 Y63.511 E.04915
G1 X98.249 Y62.886 E.02469
G1 X97.509 Y62.187 E.02462
G1 X96.841 Y61.418 E.02464
G1 X96.25 Y60.586 E.02468
G1 X95.332 Y58.781 E.04898
G1 X95.006 Y57.808 E.02482
G1 X94.779 Y56.813 E.02468
G1 X94.621 Y54.789 E.0491
G1 X94.692 Y53.768 E.02475
G1 X94.863 Y52.763 E.02466
G1 X95.492 Y50.833 E.04909
G1 X96.486 Y49.061 E.04914
G1 X97.111 Y48.252 E.02472
G1 X97.808 Y47.514 E.02455
G1 X98.582 Y46.841 E.02481
G1 X99.414 Y46.25 E.02468
G1 X101.22 Y45.332 E.049
G1 X102.194 Y45.005 E.02485
G1 X103.179 Y44.78 E.02444
G1 X104.195 Y44.65 E.02477
G1 X105.216 Y44.621 E.0247
G1 X107.236 Y44.863 E.0492
G1 X109.168 Y45.492 E.04914
G1 X110.083 Y45.948 E.02472
G1 X110.944 Y46.489 E.02459
G1 X112.485 Y47.807 E.04904
G1 X113.158 Y48.58 E.02479
G1 X113.748 Y49.411 E.02465
G1 X114.668 Y51.219 E.04906
G1 X114.995 Y52.194 E.02487
M73 P19 R4
G1 X115.221 Y53.187 E.02463
G1 X115.379 Y55.216 E.04922
G1 X115.137 Y57.237 E.04923
G1 X114.506 Y59.172 E.04922
G1 X113.511 Y60.944 E.04915
G1 X112.192 Y62.486 E.04908
G1 X111.417 Y63.16 E.02484
G1 X110.587 Y63.749 E.02461
G1 X108.774 Y64.671 E.04919
G1 X106.816 Y65.221 E.04919
G1 X105.802 Y65.35 E.02472
G1 X104.784 Y65.379 E.02463
G1 X102.764 Y65.137 E.0492
G1 X102.129 Y64.964 E.01592
G1 X102.255 Y64.577 F10800
G1 F3000
G1 X100.977 Y64.159 E.03252
G1 X99.269 Y63.2 E.04737
G1 X97.778 Y61.923 E.04748
G1 X96.566 Y60.381 E.04743
G1 X95.682 Y58.641 E.0472
G1 X95.149 Y56.744 E.04766
G1 X94.998 Y54.793 E.04733
G1 X95.232 Y52.841 E.04755
G1 X95.839 Y50.981 E.04732
G1 X96.797 Y49.274 E.04734
G1 X98.072 Y47.784 E.04743
G1 X99.619 Y46.566 E.04762
G1 X101.36 Y45.682 E.04722
G1 X103.248 Y45.151 E.04743
G1 X105.212 Y44.998 E.04764
G1 X107.158 Y45.232 E.0474
G1 X109.02 Y45.839 E.04736
G1 X110.731 Y46.8 E.04746
G1 X112.215 Y48.07 E.04724
G1 X113.432 Y49.617 E.0476
G1 X114.318 Y51.359 E.04727
G1 X114.851 Y53.256 E.04766
G1 X115.002 Y55.212 E.04745
G1 X114.768 Y57.159 E.04743
G1 X114.159 Y59.023 E.04743
G1 X113.2 Y60.731 E.04737
G1 X111.928 Y62.216 E.04729
G1 X110.381 Y63.433 E.0476
G1 X108.634 Y64.321 E.0474
G1 X106.746 Y64.85 E.04742
G1 X104.788 Y65.002 E.0475
G1 X102.842 Y64.768 E.0474
G1 X102.312 Y64.595 E.01348
G1 X102.429 Y64.239 F10800
G1 F3000
G1 X101.125 Y63.813 E.03318
G1 X99.482 Y62.889 E.04559
G1 X98.048 Y61.66 E.04568
G1 X96.882 Y60.175 E.04566
G1 X96.032 Y58.501 E.04541
G1 X95.52 Y56.675 E.04586
G1 X95.375 Y54.798 E.04553
G1 X95.601 Y52.919 E.04577
G1 X96.185 Y51.129 E.04554
G1 X97.108 Y49.487 E.04556
G1 X98.335 Y48.053 E.04564
G1 X99.825 Y46.882 E.04583
G1 X101.5 Y46.032 E.04543
G1 X103.317 Y45.521 E.04565
G1 X105.207 Y45.375 E.04585
G1 X107.08 Y45.6 E.04562
G1 X108.871 Y46.186 E.04557
G1 X110.518 Y47.111 E.04568
G1 X111.945 Y48.334 E.04545
G1 X113.116 Y49.823 E.04581
G1 X113.968 Y51.499 E.04547
G1 X114.48 Y53.325 E.04586
G1 X114.625 Y55.207 E.04565
G1 X114.399 Y57.081 E.04565
G1 X113.813 Y58.874 E.04562
G1 X112.889 Y60.518 E.04561
G1 X111.665 Y61.947 E.0455
G1 X110.176 Y63.117 E.0458
G1 X108.494 Y63.971 E.04562
G1 X106.677 Y64.48 E.04564
G1 X104.793 Y64.625 E.0457
G1 X102.92 Y64.4 E.04562
G1 X102.486 Y64.258 E.01104
; printing object Camera cap.stl id:0 copy 0
G1 E-3.6 F2400
;WIPE_START
G1 F8640
G1 X101.125 Y63.813 E-.37786
G1 X99.482 Y62.889 E-.49743
G1 X98.048 Y61.66 E-.49838
G1 X96.882 Y60.175 E-.49824
G1 X96.032 Y58.501 E-.49544
G1 X95.999 Y58.382 E-.03265
;WIPE_END
G1 Z.425 F10800
G1 X103.24 Y61.359
G1 Z.35
M73 P20 R4
G1 E6 F3000
M204 S800
;TYPE:Perimeter
;WIDTH:0.449999
G1 X102.625 Y61.156 E.01687
G1 X102.033 Y60.894 E.01687
G1 X101.47 Y60.575 E.01686
G1 X100.94 Y60.202 E.01689
G1 X100.45 Y59.779 E.01687
G1 X100.004 Y59.31 E.01686
G1 X99.605 Y58.799 E.01689
G1 X99.259 Y58.252 E.01686
G1 X98.968 Y57.674 E.01686
G1 X98.735 Y57.07 E.01687
G1 X98.562 Y56.446 E.01687
G1 X98.451 Y55.808 E.01687
G1 X98.404 Y55.162 E.01688
G1 X98.419 Y54.515 E.01686
G1 X98.499 Y53.872 E.01688
G1 X98.641 Y53.24 E.01688
G1 X98.844 Y52.625 E.01687
G1 X99.106 Y52.033 E.01687
G1 X99.425 Y51.47 E.01686
G1 X99.798 Y50.94 E.01689
G1 X100.221 Y50.45 E.01687
G1 X100.69 Y50.004 E.01686
G1 X101.201 Y49.605 E.01689
G1 X101.748 Y49.259 E.01686
G1 X102.326 Y48.968 E.01686
G1 X102.93 Y48.735 E.01687
G1 X103.555 Y48.562 E.0169
G1 X104.195 Y48.451 E.01692
G1 X104.835 Y48.403 E.01672
G1 X105.485 Y48.42 E.01694
